X:1
T:Menuet in G
T:Menuet in G
T:Guitar
T:Johann Sebastian Guitar Bach BWV Anh. 114
C:Johann Sebastian Guitar Bach - BWV Anh. 114
%%score ( 1 2 )
L:1/8
Q:1/4=132
M:3/4
K:G
V:1 treble nm="Classical Guitar" snm="Guit."
V:2 treble 
V:1
 d2 GABc | d2 G2 G2 | e2 cdef | g2 G2 G2 | c2 dcBA | B2 cBAG | F2 GABG | A6 | d2 GABc | d2 G2 G2 | %10
 e2 cdef | g2 G2 G2 | c2 dcBA | B2 cBAG | A2 BAGF | G6 :: b2 gabg | a2 defd | g2 efgd | ^c2 Bc A2 | %20
 AB^cdef | g2 f2 e2 | f2 A2 ^c2 | d6 | d2 GF G2 | e2 GF G2 | d2 c2 B2 | AGFG A2 | DEFGAB | %29
 c2 B2 A2 | Bd G2 F2 | G6 :| %32
V:2
 G,4 A,2 | B,6 | C6 | B,6 | A,6 | G,6 | D2 B,2 G,2 | D2 DCB,A, | B,4 A,2 | G,2 B,2 G,2 | C6 | %11
 B,2 CB,A,G, | A,4 F,2 | G,4 B,2 | C2 D2 D2 | G,4 G,2 :: G6 | F4 z2 | E2 G2 E2 | A4 A2 | A,6 | %21
 B,2 D2 ^C2 | D2 F,2 A,2 | D2 D2 C2 | B,4 B,2 | C4 C2 | B,2 A,2 G,2 | D6 | D4 F2 | E2 G2 F2 | %30
 G2 B,2 D2 | G,2 D2 G,2 :| %32

